!!!COM: Beethoven, Ludwig van
!!!CDT: 1770///-1827///
!!!ODT: 1825///
!!!OTL: String Quartet No. 15 in A Minor, Op. 132
!!!OPS: Op. 132
!!!OMV: Mvmt. 2
!!!OMD: Allegro ma non tanto
**kern	**dynam	**kern	**dynam	**kern	**dynam	**kern	**dynam
*staff4	*staff4	*staff3	*staff3	*staff2	*staff2	*staff1	*staff1
*Icello	*Icello	*Iviola	*Iviola	*Ivioln	*Ivioln	*Ivioln	*Ivioln
*>[A,A1,A,A2,B,B1,B,B2,C,D,A,A2,B,B2,C]	*>[A,A1,A,A2,B,B1,B,B2,C,D,A,A2,B,B2,C]	*>[A,A1,A,A2,B,B1,B,B2,C,D,A,A2,B,B2,C]	*>[A,A1,A,A2,B,B1,B,B2,C,D,A,A2,B,B2,C]	*>[A,A1,A,A2,B,B1,B,B2,C,D,A,A2,B,B2,C]	*>[A,A1,A,A2,B,B1,B,B2,C,D,A,A2,B,B2,C]	*>[A,A1,A,A2,B,B1,B,B2,C,D,A,A2,B,B2,C]	*>[A,A1,A,A2,B,B1,B,B2,C,D,A,A2,B,B2,C]
*>norep[A,A2,B,B2,C,D,A,A2,B,B2]	*>norep[A,A2,B,B2,C,D,A,A2,B,B2]	*>norep[A,A2,B,B2,C,D,A,A2,B,B2]	*>norep[A,A2,B,B2,C,D,A,A2,B,B2]	*>norep[A,A2,B,B2,C,D,A,A2,B,B2]	*>norep[A,A2,B,B2,C,D,A,A2,B,B2]	*>norep[A,A2,B,B2,C,D,A,A2,B,B2]	*>norep[A,A2,B,B2,C,D,A,A2,B,B2]
*>A	*>A	*>A	*>A	*>A	*>A	*>A	*>A
*clefF4	*clefF4	*clefC3	*clefC3	*clefG2	*clefG2	*clefG2	*clefG2
*k[f#c#g#]	*k[f#c#g#]	*k[f#c#g#]	*k[f#c#g#]	*k[f#c#g#]	*k[f#c#g#]	*k[f#c#g#]	*k[f#c#g#]
*A:	*A:	*A:	*A:	*A:	*A:	*A:	*A:
*M3/4	*M3/4	*M3/4	*M3/4	*M3/4	*M3/4	*M3/4	*M3/4
*MM152	*MM152	*MM152	*MM152	*MM152	*MM152	*MM152	*MM152
=1-	=1-	=1-	=1-	=1-	=1-	=1-	=1-
(4GG#/	p	(4G#/	p	(4G#/	p	(4G#/	p
4AA/	.	4A/	.	4A/	.	4A/	.
4C#/)	.	4c#/)	.	4c#/)	.	4c#/)	.
=2	=2	=2	=2	=2	=2	=2	=2
(4C#/	.	(4c#\	.	(4c#/	.	(4c#/	.
4D\	.	4d\	.	4d/	.	4d/	.
4F#\)	.	4f#\)	.	4f#/)	.	4f#/)	.
=3	=3	=3	=3	=3	=3	=3	=3
(4AA#/	.	(4A#/	.	(4A#/	.	(4A#/	.
4BB/	.	4B/	.	4B/	.	4B/	.
4D#/)	.	4d#/)	.	4d#/)	.	4d#/)	.
=4	=4	=4	=4	=4	=4	=4	=4
(4D#\	.	(4D#/	.	(4d#/	.	(4d#/	.
4E\	.	4E/	.	4e/	.	4e/	.
4G#\)	.	4G#/)	.	4g#/)	.	4g#/)	.
=5	=5	=5	=5	=5	=5	=5	=5
2.r	.	2.r	.	(4G#/	.	(2cc#\	.
.	.	.	.	4An/	.	.	.
.	.	.	.	4c#/)	.	8b/L	.
.	.	.	.	.	.	(8an/J)	.
=6	=6	=6	=6	=6	=6	=6	=6
2.r	.	2.r	.	(4c#/	.	8g#/L	.
.	.	.	.	.	.	8e#/J)	.
.	.	.	.	4dn/	.	4f#'/	.
.	.	.	.	4f#/)	.	4r	.
=7	=7	=7	=7	=7	=7	=7	=7
(4AA#/	p	(2dn/	p	2.r	.	2.r	.
4BB/	.	.	.	.	.	.	.
4Dn/)	.	8c#/L	.	.	.	.	.
.	.	8B/J)	.	.	.	.	.
=8	=8	=8	=8	=8	=8	=8	=8
(4D#\	.	(8An/L	.	2.r	.	2.r	.
.	.	8F#/J)	.	.	.	.	.
4E\	.	4G#'/	.	.	.	.	.
4G#\)	.	4r	.	.	.	.	.
=9	=9	=9	=9	=9	=9	=9	=9
2.r	.	2.r	.	(4B#/	p	(2ee\	p
.	.	.	.	4c#/	.	.	.
.	.	.	.	4e/)	.	8dd\L	.
.	.	.	.	.	.	8cc#\J)	.
=10	=10	=10	=10	=10	=10	=10	=10
2.r	.	2.r	.	(4e#/	.	(8b/L	.
.	.	.	.	.	.	8g#/J)	.
.	.	.	.	4f#/	.	4a'/	.
.	.	.	.	4a/)	.	4r	.
=11	=11	=11	=11	=11	=11	=11	=11
2.r	.	(4c#\	pp	(4en/	pp	(8cc#/L	pp
.	.	.	.	.	.	8a#/J)	.
.	.	4d#\	.	4f#/	.	4b'/	.
.	.	4f#\)	.	4a/)	.	4r	.
=12	=12	=12	=12	=12	=12	=12	=12
(4D#\	pp	(4F#/	.	4B/	.	(8an/L	.
.	.	.	.	.	.	8f#/J)	.
4E\	.	4G#/	.	4r	.	4g#'/	.
4G#\)	.	4B/)	.	4r	.	4r	.
=13	=13	=13	=13	=13	=13	=13	=13
(4DD#/	pp	(2G#/	pp	(2g#/	pp	2.r	.
4EE/	.	.	.	.	.	.	.
4GG#/)	.	8F#/L	.	8f#/L	.	.	.
.	.	8E/J)	.	8e/J)	.	.	.
=14	=14	=14	=14	=14	=14	=14	=14
(4GG#/	.	4E/	.	(8d#/L	.	2.r	.
.	.	.	.	8B#/J)	.	.	.
4AAn/	.	4r	.	4c#'/	.	.	.
4C#/)	.	4r	.	4r	.	.	.
=15	=15	=15	=15	=15	=15	=15	=15
2.r	.	(4E#/	.	(2a/	<	(2aa\	<
.	.	4F#/	.	.	.	.	.
.	.	4A/)	.	8g#/L	>	8gg#\L	>
.	.	.	.	8f#/J)	.	8ff#\J)	.
=16	=16	=16	=16	=16	=16	=16	=16
2.r	.	(4A#/	.	(8e/L	.	(8ee\L	.
.	.	.	.	8c#/J)	.	8cc#\J)	.
.	.	4B/	.	(4d#/	.	4dd#'\	.
.	.	4d#\)	.	4f#/)	.	4r	.
=17	=17	=17	=17	=17	=17	=17	=17
2.r	.	(4d#\	.	(4f#/	.	(2gg#\	<
.	.	4en\	.	4g#/	.	.	.
.	.	4g#\)	.	4bn/)	.	8ff#\L	>
.	.	.	.	.	.	8ee\J)	.
=18	=18	=18	=18	=18	=18	=18	=18
2.r	.	(4g#\	.	(4e/	.	(8dd#\L	.
.	.	.	.	.	.	8b#\J)	<
.	.	4a\	<	4A/	<	4cc#\	.
.	.	4e#\)	.	4g#/)	.	(8ccc#\L	.
.	.	.	.	.	.	8bb\J)	.
=19	=19	=19	=19	=19	=19	=19	=19
2.r	.	(4c#\	.	(4e#/	.	(8bb\L	.
.	.	.	.	.	.	8gg#\J)	.
.	.	4f#\	.	4a/	.	4aa'\	.
.	.	4d#\)	.	4f#/)	.	(8bb\L	.
.	.	.	.	.	.	8aa\J)	.
=20	=20	=20	=20	=20	=20	=20	=20
4r	.	(4B/	.	(4d#/	.	(8aa\L	.
.	.	.	.	.	.	8ff#\J)	.
4r	.	4en\	.	4g#/	.	4gg#'\	.
4E'\	<	4B/)	.	4g#/)	.	(8aa\L	.
.	.	.	.	.	.	8gg#\J)	.
=21	=21	=21	=21	=21	=21	=21	=21
4BB/	.	4g#\	.	(8g#/L	.	(8gg#\L	.
.	.	.	.	8b/J)	.	8ee#\J)	.
4B'\	.	4B'/	.	4a'/	.	4ff#'\	.
4BB'/	f	4B'/	f	4a'/	f	(8gg#\L	f
.	.	.	.	.	.	8ff#\J)	.
=22	=22	=22	=22	=22	=22	=22	=22
*>A1	*>A1	*>A1	*>A1	*>A1	*>A1	*>A1	*>A1
4BB'/	.	(8A/L	.	(8a/L	.	(8ff#\L	.
.	.	8B/J)	.	8f#/J)	.	8dd#\J)	.
4E\	.	4G#'/	.	4e'/	.	4een'\	.
4r	.	4r	.	4r	.	4r	.
=23:|!	=23:|!	=23:|!	=23:|!	=23:|!	=23:|!	=23:|!	=23:|!
*>A2	*>A2	*>A2	*>A2	*>A2	*>A2	*>A2	*>A2
4BB'/	.	(8A/L	.	(8a/L	.	(8ff#\L	.
.	.	8B/J)	.	8f#/J)	.	8dd#\J)	.
4E'\	.	4E'/	.	4e'/	.	4ee'\	.
(4GGn/	p	(4Gn/	p	4Gn/	p	(4gn/	p
=24	=24	=24	=24	=24	=24	=24	=24
4FF#/	.	4F#/	.	4r	.	4f#/	.
4GGn/	.	4Gn/	.	(4Gn/	.	4gn/	.
4BB/)	.	4B/)	.	4B/)	.	4b/)	.
=25	=25	=25	=25	=25	=25	=25	=25
(4BB/	.	(4B/	.	(4B/	.	(4b\	.
4Cn/	.	4cn\	.	4cn/	.	4ccn\	.
4E/)	.	4e\)	.	4e/)	.	4ee\)	.
=26!|:	=26!|:	=26!|:	=26!|:	=26!|:	=26!|:	=26!|:	=26!|:
*>B	*>B	*>B	*>B	*>B	*>B	*>B	*>B
2.r	.	(4F#/	.	(4f#/	.	(4ff#\	.
.	.	4Gn/	.	4gn/	.	4ggn\	.
.	.	4B/)	.	4b/)	.	4bb\)	.
=27	=27	=27	=27	=27	=27	=27	=27
(4BB/	.	(4B/	.	(4b\	.	(4bb\	.
4Cn/	.	4cn/	.	4ccn\	.	4cccn\	.
4cn\)	.	4Gn/)	.	4ee\)	.	4eee\)	.
=28	=28	=28	=28	=28	=28	=28	=28
*k[]	*k[]	*k[]	*k[]	*k[]	*k[]	*k[]	*k[]
(4F\	.	(4A/	.	(2ff\	<	(2aa\	<
4G\	.	4B/	.	.	.	.	.
4B\)	.	4d/)	.	8ee\L	>	8gg\L	>
.	.	.	.	8dd\J)	.	8ff\J)	.
=29	=29	=29	=29	=29	=29	=29	=29
*clefC4	*clefC4	*	*	*	*	*	*
(2e\	<	(2g\	<	(8dd\L	.	(8ff\L	.
.	.	.	.	8b\J)	.	8dd\J)	.
.	.	.	.	4cc'\	.	4ee'\	.
8d\L	>	8f\L	>	4r	.	4r	.
8c\J)	.	8e\J)	.	.	.	.	.
=30	=30	=30	=30	=30	=30	=30	=30
(8c\L	.	(8e\L	.	(2ff\	<	(2aa\	<
8A\J)	.	8c\J)	.	.	.	.	.
4B\	.	4d\	.	.	.	.	.
4r	.	4r	.	8ee\L	>	8gg\L	>
.	.	.	.	8dd\J)	.	8ff\J)	.
=31	=31	=31	=31	=31	=31	=31	=31
(2e\	<	(2g\	<	(8dd\L	.	(8ff\L	.
.	.	.	.	8b\J)	.	8dd\J)	.
.	.	.	.	4cc'\	.	4ee'\	.
8d\L	>	8f\L	>	4r	.	4r	.
8c\J)	.	8e\J)	.	.	.	.	.
=32	=32	=32	=32	=32	=32	=32	=32
(2B-\	.	(2d\	.	4r	.	4r	.
.	.	.	.	(4ee\	.	(4gg\	.
8A\L	<	8c\L	<	8ff\L	<	8aa\L	<
8G\J)	.	8B-\J)	.	8gg\J)	.	8bb-\J)	.
=33	=33	=33	=33	=33	=33	=33	=33
*clefF4	*clefF4	*	*	*	*	*	*
(2AA/	f	(2A/	f	(4ff\	f	(4ccc\	f
.	.	.	.	4f/	.	4ff\	.
8GG/L	.	8G/L	.	4a/)	.	4aa\)	.
8FF/J)	.	8F/J)	.	.	.	.	.
=34	=34	=34	=34	=34	=34	=34	=34
(8EE-/L	.	(8E-/L	.	(4a/	.	(4aa\	.
8CC/J)	.	8C/J)	.	.	.	.	.
4DD'/	.	4D'/	.	4b-\	.	4bb-\	.
4r	.	4r	.	4dd\)	.	4ddd\)	.
=35	=35	=35	=35	=35	=35	=35	=35
(4FF#/	.	(2B-/	.	(2b-/	.	2.r	.
4GG/	.	.	.	.	.	.	.
4BB-/)	.	8A/L	.	8a/L	.	.	.
.	.	8G/J)	.	8g/J)	.	.	.
=36	=36	=36	=36	=36	=36	=36	=36
(4BBn/	.	(8F/L	.	(8f/L	.	2.r	.
.	.	8D/J)	.	8d/J)	.	.	.
4C/)	.	4En'/	.	4en'/	.	.	.
(8D\L	p	(8F/L	p	(8gg\L	p	.	.
8En\J)	.	8G/J)	.	8cc\J)	.	.	.
=37	=37	=37	=37	=37	=37	=37	=37
(4E\	.	(4G/	.	(2aa\	.	(2ccc\	p
4F\	.	4A/	.	.	.	.	.
4A\)	.	4c/)	.	8gg\L	.	8bb-\L	.
.	.	.	.	8ff\J)	.	8aa\J)	.
=38	=38	=38	=38	=38	=38	=38	=38
(2B-\	.	(2d\	<	(8ee\L	<	(8gg\L	.
.	.	.	.	8cc\J)	.	8ee\J)	<
.	.	.	.	4dd'\	.	4ff'\	.
8G\L	<	8B-/L	.	4r	.	4r	.
8F\J	.	8A/J)	.	.	.	.	.
=39	=39	=39	=39	=39	=39	=39	=39
(2E\)	.	(2G/	.	(8ff\L	.	(8aa\L	.
.	.	.	.	8dd\J)	.	8ff\J)	.
.	.	.	.	4ee'\	.	4gg'\	.
8D\L	.	8F/L	.	4r	.	4r	.
8C\J)	.	8E/J)	.	.	.	.	.
=40	=40	=40	=40	=40	=40	=40	=40
(4.F\	f	(4.A/	f	(8gg\L	f	(8bb-\L	f
.	.	.	.	8ee\J)	.	8gg\J)	.
.	.	.	.	4ff'\	.	4aa'\	.
8E\L	.	8G/L	.	.	.	.	.
8D\	.	8F/	.	4ff'\	.	4aa'\	.
8C\J)	.	8E/J)	.	.	.	.	.
=41	=41	=41	=41	=41	=41	=41	=41
(8BB-/L	.	(8D/L	.	(4ff\	.	(4aa\	.
8AA/	.	8C/	.	.	.	.	.
8GG/	.	8E/	.	4gg\)	.	4bb-\)	.
8FF/J)	.	8F/J)	.	.	.	.	.
4C/	.	(8G/L	.	4ee'\	.	4gg'\	.
.	.	8c/J)	.	.	.	.	.
=42	=42	=42	=42	=42	=42	=42	=42
2.r	.	(8F#/L	pp	4a'/	pp	(8ccc\L	pp
.	.	8f#/J)	.	.	.	8dd\J)	.
.	.	4g'\	.	4d'/	.	4bb-'\	.
.	.	4e'\	.	4c'/ 4g'/	.	(8bb-\L	.
.	.	.	.	.	.	8cc\J)	.
=43	=43	=43	=43	=43	=43	=43	=43
2.r	.	4fn'\	.	4cc'\	.	4aa'\	.
.	.	4d\	.	4f'/	.	(8aa\L	.
.	.	.	.	.	.	8b-\J)	.
.	.	4e\	.	4g'/ 4b-'/	.	4gg'\	.
=44	=44	=44	=44	=44	=44	=44	=44
2.r	.	4c#'\	.	4e'/	.	(8gg\L	.
.	.	.	.	.	.	8a\J)	.
.	.	4d\	.	4f'/	.	4ff'\	.
.	.	4Bn'/	.	4g'/ 4dd'/	.	(8ff\L	.
.	.	.	.	.	.	8g\J)	.
=45	=45	=45	=45	=45	=45	=45	=45
4r	.	4cn'/	.	4g'/ 4cc'/	.	4ee'\	.
4r	.	4A'/	.	4f'/ 4cc'/	.	(8ee\L	.
.	.	.	.	.	.	8f\J)	.
4GG'/	pp	4B'/	.	(8f/L	.	4dd'\	.
.	.	.	.	8G/J)	.	.	.
=46	=46	=46	=46	=46	=46	=46	=46
(8AA/L	.	(4D/	.	(2f/	.	2.r	.
8FF#/J)	<	.	.	.	.	.	.
4GG'/	.	4d\	<	.	.	.	.
4r	.	8c\L	.	8e/L	<	.	.
.	.	8B\J)	.	8d/J)	.	.	.
=47	=47	=47	=47	=47	=47	=47	=47
(8AA/L	.	(2E/	.	(2g/	.	2.r	.
8FF#/J)	.	.	.	.	.	.	.
4GG'/	.	.	.	.	.	.	.
4r	.	8D/L	.	8f/L	.	.	.
.	.	8C/J)	.	8e/J)	.	.	.
=48	=48	=48	=48	=48	=48	=48	=48
(8AA/L	.	(2F/	.	(2Bn/ 2d/	.	(2dd\	.
8FF#/J)	.	.	.	.	.	.	.
4GG'/	.	.	.	.	.	.	.
4r	.	8c\L	.	8e/L	.	8cc\L	<
.	.	8d\J)	.	8f/J)	.	8bn\J)	.
=49	=49	=49	=49	=49	=49	=49	=49
(8AA/L	.	(2G/	.	(2c/ 2e/	.	(2ee\	.
8FF/J)	.	.	.	.	.	.	.
4GG'/	.	.	.	.	.	.	.
4r	.	8d\L	.	8f/L	.	8dd\L	.
.	.	8e\J)	.	8g/J)	.	8cc\J)	.
=50	=50	=50	=50	=50	=50	=50	=50
(2fn\	.	(2d\ 2dd\	.	(2g\ 2bn\	.	(8aa\L	.
.	.	.	.	.	.	8ff#\J)	.
.	.	.	.	.	.	4gg'\	.
8e\L	.	8g\L	.	8cc\L	.	4r	.
8d\J)	.	8f\J)	.	8dd\J)	.	.	.
=51	=51	=51	=51	=51	=51	=51	=51
(2g\	.	(2e\ 2ee\	.	(2g\ 2cc\	.	(8aa\L	.
.	.	.	.	.	.	8ff#\J)	.
.	.	.	.	.	.	4gg'\	.
8f\L	.	8a\L	.	8dd\L	.	4r	.
8e\J)	.	8g\J)	.	8ee\J)	.	.	.
=52	=52	=52	=52	=52	=52	=52	=52
(4BBn/	p	2.r	.	2.r	.	(2e/	p
4C/	.	.	.	.	.	.	.
4E/)	.	.	.	.	.	8d/L	.
.	.	.	.	.	.	8c/J)	.
=53	=53	=53	=53	=53	=53	=53	=53
2.r	.	(4E/	p	(2cc\	p	(8B/L	.
.	.	.	.	.	.	8G#/J)	.
.	.	4F/	.	.	.	4A'/	.
.	.	4A/)	.	8b\L	.	4r	.
.	.	.	.	8a\J)	.	.	.
=54	=54	=54	=54	=54	=54	=54	=54
*clefC4	*clefC4	*	*	*	*	*	*
(4c#\	.	(4e\	.	(8g/L	.	(2a/	.
.	.	.	.	8e/J)	.	.	.
4d\	.	4d\	.	4f/	.	.	.
4f\)	.	4a\)	.	4d/	.	8g/L	.
.	.	.	.	.	.	(8f/J)	.
=55	=55	=55	=55	=55	=55	=55	=55
(2g\	.	(4b\	.	(4G/ 4d/	.	8f/L	.
.	.	.	.	.	.	8d/J)	.
.	.	4cc\	.	4c/)	.	4e'/	.
8f\L	.	8dd\L	.	4r	.	(8a/L	.
8e\J)	.	8ee\J)	.	.	.	8g/J)	.
=56	=56	=56	=56	=56	=56	=56	=56
*clefF4	*clefF4	*	*	*	*	*	*
(2G\	.	(4G/ 4d/	.	(4b\	.	(8f/L	.
.	.	.	.	.	.	8d/J)	.
.	.	4c/	.	4cc\	.	4e'/	.
8F\L	.	8B/L	.	8dd\L	.	(8aa\L	.
8E\J)	<	8c/J)	<	8ee\J)	<	8gg\J)	<
=57	=57	=57	=57	=57	=57	=57	=57
(4BB/	.	4G/	.	(8dd/L	.	(8ff\L	.
.	.	.	.	8f/J)	.	8dd\J)	.
4Cn/	.	4G/	.	4e'/	.	4ee'\	.
4E\	.	4G#/	.	4r	.	(8ee\L	.
.	.	.	.	.	.	8dd\J)	.
=58	=58	=58	=58	=58	=58	=58	=58
4G#\	.	(8B\L	.	4r	.	(8dd\L	.
.	.	8e\J)	.	.	.	8b\J)	.
4A\)	.	4e\	.	4r	.	4cc\	.
4r	.	(4e\	.	(4gg#\	.	(8eee\L	.
.	.	.	.	.	.	8ddd\J)	.
=59	=59	=59	=59	=59	=59	=59	=59
4r	.	4g#\	.	8bb\L	.	(8ddd\L	.
.	.	.	.	8ee\J	.	8bb\J)	.
4r	.	4a\)	.	4ee\)	.	4ccc'\	.
(4CC/	.	(4C/	.	4r	.	(8ccc\L	.
.	.	.	.	.	.	8bb\J)	.
=60	=60	=60	=60	=60	=60	=60	=60
4EE/	.	4E/	.	4r	.	(8bb\L	.
.	.	.	.	.	.	8gg#\J)	.
4FF/)	.	4F/)	.	4r	.	4aa'\	.
4r	.	(4c\	f	(4cc\	f	(8ccc\L	f
.	.	.	.	.	.	8bb\J)	.
=61	=61	=61	=61	=61	=61	=61	=61
4r	.	4e\	.	4ee\	.	(8bb\L	.
.	.	.	.	.	.	8gg#\J)	.
*clefC4	*clefC4	*	*	*	*	*	*
4r	.	4f\)	.	4ff\)	.	4aa'\	.
(4c\	p	(4e\	p	(8cc\L	p	4r	.
.	.	.	.	8b\J)	.	.	.
=62	=62	=62	=62	=62	=62	=62	=62
4e\	.	4E/	.	(8b/L	.	4r	.
.	.	.	.	8g#/J)	.	.	.
4f\)	.	4F/)	.	4a'/	.	4r	.
(4c#\	f	(4A/	f	4ee\	f	(8aa\L	f
.	.	.	.	.	.	8ggn\J)	.
=63	=63	=63	=63	=63	=63	=63	=63
4e\	.	4c#\	.	(8ee\L	.	(8gg\L	.
.	.	.	.	8a\J)	.	8ee\J)	.
4f\)	.	4d\)	.	4a'/	.	4ff'\	.
4r	.	(8A/L	p	(8a/L	p	(4aa\	p
.	.	8Gn/J)	.	8gn/J)	.	.	.
=64	=64	=64	=64	=64	=64	=64	=64
4r	.	(8G/L	.	(8g/L	.	4ccc#\	.
.	.	8E/J)	.	8e/J)	.	.	.
*clefF4	*clefF4	*	*	*	*	*	*
4r	.	4F'/	.	4f'/	.	4ddd\)	.
(8F\L	f	(8f\L	f	4r	.	4r	.
8E\J)	.	8e\J)	.	.	.	.	.
=65	=65	=65	=65	=65	=65	=65	=65
(8E\L	.	(8e\L	.	4r	.	4r	.
8C#\J)	.	8c#\J)	.	.	.	.	.
4D'\	.	4d'\	.	4r	.	4r	.
4r	.	4r	.	(8dd\L	p	(8ddd\L	p
.	.	.	.	8ccn\J)	.	8cccn\J)	.
=66	=66	=66	=66	=66	=66	=66	=66
4r	.	4r	.	(8cc\L	.	(8ccc\L	.
.	.	.	.	8a\J)	.	8aa\J)	.
4r	.	4r	.	4b'\	.	4bb'\	.
(8Cn/L	f	(8cn/L	f	4r	.	4r	.
8BB/J)	.	8B/J)	.	.	.	.	.
=67	=67	=67	=67	=67	=67	=67	=67
(8BB/L	.	(8B/L	.	4r	.	4r	.
8GG#/J)	.	8G#/J)	.	.	.	.	.
4AA'/	.	4A'/	.	4r	.	4r	.
4r	.	4r	.	(8cc\L	p	(8ccc\L	p
.	.	.	.	8b\J)	.	8bb\J)	.
=68	=68	=68	=68	=68	=68	=68	=68
4r	.	4r	.	(8b/L	.	(8bb\L	.
.	.	.	.	8g#/J)	.	8gg#\J)	.
4r	.	4r	.	4a'/	.	4aa'\	.
(8C#/L	.	(8c#/L	.	4r	.	4r	.
8BB/J)	>	8B/J)	>	.	.	.	.
=69	=69	=69	=69	=69	=69	=69	=69
(8BB/L	.	(8B/L	.	4r	.	4r	.
8GG#/J)	.	8G#/J)	.	.	.	.	.
4AA'/	.	4A'/	.	4r	.	4r	.
(8C#/L	pp	(8c#/L	pp	(8cc#\L	pp	(8ccc#\L	pp
8BB/J)	.	8B/J)	.	8b\J)	.	8bb\J)	.
=70	=70	=70	=70	=70	=70	=70	=70
(8d\L	<	2.A/	.	(8b/L	.	(8bb\L	.
8B\J)	.	.	.	8g#/J)	<	8gg#\J)	<
4c#'\	.	.	.	4a'/	.	4aa'\	.
(8d#\L	.	.	.	(8f#/L	.	(8ff#\L	.
8f#\J	.	.	.	&(8b/J&))	.	8dd#\J)	.
=71	=71	=71	=71	=71	=71	=71	=71
2G#\	.	8c#/L	<	[4e/	.	4ee'\	.
.	.	8A#/J	.	.	.	.	.
.	.	4B'/	.	8e/L]	.	(8ddn\L	.
.	.	.	.	(8d/	.	8b\J)	.
4A\)	.	(8An/L	.	8c#/)	.	4cc#'\	.
.	.	8B/J)	.	8d/J	.	.	.
=72	=72	=72	=72	=72	=72	=72	=72
*k[f#c#g#]	*k[f#c#g#]	*k[f#c#g#]	*k[f#c#g#]	*k[f#c#g#]	*k[f#c#g#]	*k[f#c#g#]	*k[f#c#g#]
(4GG#/	p	(8c#/L	p	(8e/L	p	(2cc#\	p
.	.	8B/	.	8d/)	.	.	.
4AA/	.	8A/	.	8c#/	.	.	.
.	.	8B/J	.	8d/J	.	.	.
4C#/)	.	4A/)	.	&(8e/&)	.	8b\L	<
.	.	.	.	8r	.	8a\J)	.
=73	=73	=73	=73	=73	=73	=73	=73
(4C#/	.	(8A/L	.	2.r	.	(8g#/L	.
.	.	8G#/	.	.	.	8e#/J)	.
4Dn\	.	8F#/	.	.	.	4f#'/	.
.	.	8G#/J	.	.	.	.	.
4F#\)	.	8A/)	.	.	.	4r	.
.	.	8r	.	.	.	.	.
=74	=74	=74	=74	=74	=74	=74	=74
(4AA#/	.	2.r	.	(8f#/L	.	(2dd\	<
.	.	.	.	8e/	.	.	.
4BB/	.	.	.	8d/	.	.	.
.	.	.	.	8e/J	.	.	.
4D/)	.	.	.	8f#/)	.	8cc#\L	>
.	.	.	.	8r	.	8b\J)	.
=75	=75	=75	=75	=75	=75	=75	=75
(4D#\	.	(8B/L	.	2.r	.	(8a/L	.
.	.	8A/	.	.	.	8f#/J)	.
4E\	.	8G#/	.	.	.	4g#'/	.
.	.	8A/J	.	.	.	.	.
4G#\)	.	4B/)	.	.	.	4r	.
=76	=76	=76	=76	=76	=76	=76	=76
2.r	.	(8c#/L	.	(8e/L	.	(2ee\	.
.	.	8B/	.	8d/	.	.	.
.	.	8A/	.	8c#/	.	.	.
.	.	8B/J	.	8d/J	.	.	.
.	.	8c#/)	.	8e/)	.	8dd\L	<
.	.	8r	.	8r	.	8cc#\J)	.
=77	=77	=77	=77	=77	=77	=77	=77
4r	.	4F#/	pp	4A/	pp	(8b/L	pp
.	.	.	.	.	.	8g#/J)	.
(8G#\L	pp	4r	.	4r	.	4a'/	.
8E#\J)	.	.	.	.	.	.	.
4F#'\	.	4r	.	4r	.	4r	.
=78	=78	=78	=78	=78	=78	=78	=78
4r	.	4F#/	.	4d#/	.	(8cc#/L	.
.	.	.	.	.	.	8a/J)	.
(8C#/L	.	4r	.	4r	.	4b'/	.
8AA#/J)	.	.	.	.	.	.	.
4BB'/	.	4r	.	4r	.	4r	.
=79	=79	=79	=79	=79	=79	=79	=79
4r	.	4E/	.	4B/ 4e/	.	(8an/L	.
.	.	.	.	.	.	8f#/J)	.
(8F#\L	.	4r	.	4r	.	4g#/	.
8D#\J)	.	.	.	.	.	.	.
4En\	.	4r	.	4r	.	4r	.
=80	=80	=80	=80	=80	=80	=80	=80
(4E#\	.	2.r	.	(2a/	<	(2aa\	<
4F#\	.	.	.	.	.	.	.
4A\)	.	.	.	8g#/L	>	8gg#\L	>
.	.	.	.	8f#/J)	.	8ff#\J)	.
=81	=81	=81	=81	=81	=81	=81	=81
(4A#\	pp	4r	.	(8e/L	pp	(8ee\L	pp
.	.	.	.	8c#/J)	.	8cc#\J)	.
4B\	.	(8cc#\L	pp	4dn'/	.	4ddn'\	.
.	.	8a#\J)	.	.	.	.	.
4dn\)	.	4b'\	.	4r	.	4r	.
=82	=82	=82	=82	=82	=82	=82	=82
(4F#\	.	4r	.	(8f#/L	.	(8ff#\L	.
.	.	.	.	8d#/J)	.	8dd#\J)	.
4G#\	.	(8f#\L	.	4B'/ 4e'/	.	4ee'\	.
.	.	8d#\J)	.	.	.	.	.
4B\)	.	4e'\	.	4r	.	4r	.
=83	=83	=83	=83	=83	=83	=83	=83
(4GG#/	.	4r	.	(8dn/L	.	(8ddn\L	.
.	.	.	.	8B/J)	.	8b\J)	.
4AAn/	.	(8B/L	.	4c#'/	.	4cc#'\	.
.	.	8G#/J)	.	.	.	.	.
4C#/)	.	4A'/	.	4r	.	4r	.
=84	=84	=84	=84	=84	=84	=84	=84
(2AA/	.	(2A/	.	(2cc#\	.	2.r	.
8GG#/L	<	8G#/L	<	8b\L	<	.	.
8FF#/J)	.	8F#/J)	.	8a\J)	.	.	.
=85	=85	=85	=85	=85	=85	=85	=85
(8EE/L	.	(8E/L	.	(8g#/L	.	4r	.
8CC#/J)	.	8C#/J)	.	8e#/J)	.	.	.
4DD'/	.	4D'/	.	4f#'/	.	(8gg#\L	.
.	.	.	.	.	.	8ee#\J)	<
4r	.	4r	.	4r	.	4ff#'\	.
=86	=86	=86	=86	=86	=86	=86	=86
(8FF#/L	.	(8F#/L	.	(8a/L	.	4r	.
8DD#/J)	.	8D#/J)	.	8f#/J)	.	.	.
4EE'/	.	4E'/	.	4g#'/	.	(8ff#\L	.
.	.	.	.	.	.	8dd#\J)	.
4r	.	4r	.	4r	.	4een'\	.
=87	=87	=87	=87	=87	=87	=87	=87
(8Dn/L	.	(8dn\L	.	(8b/L	.	4r	.
8BB/J)	.	8B\J)	.	8g#/J)	.	.	.
4C#'/	.	4c#'\	.	4a'/	.	(8ff#\L	.
.	.	.	.	.	.	8dd#\	.
4r	.	4r	.	4r	.	8ee\	.
.	.	.	.	.	.	8ccc#\J)	.
=88	=88	=88	=88	=88	=88	=88	=88
2.r	.	(8b\L	p	(8dd\L	p	(2ccc#\	p
.	.	8g#\J	.	8b\J	.	.	.
.	.	4a\	.	4cc#\	.	.	.
.	.	4cc#\)	.	4een\)	.	8bb\L	<
.	.	.	.	.	.	8aa\J)	.
=89	=89	=89	=89	=89	=89	=89	=89
(4c#\	p	(2a\	<	(4e#/	.	(2aa\	<
4d\	.	.	.	4f#/	.	.	.
4f#\)	.	8g#\L	>	4a/)	.	8gg#\L	>
.	.	8f#\J)	.	.	.	8ff#\J)	.
=90	=90	=90	=90	=90	=90	=90	=90
2.r	.	(8cc#\L	.	(8een\L	.	(2ddd\	.
.	.	8a#\J	.	8cc#\J	.	.	.
.	.	4b\	.	4dd\	.	.	.
.	.	4dd\)	.	4ff#\)	.	8ccc#\L	<
.	.	.	.	.	.	8bb\J)	.
=91	=91	=91	=91	=91	=91	=91	=91
(4d#\	.	(2b\	.	(4f#/	.	(2bb\	<
4e\	.	.	.	4g#/	.	.	.
4g#\)	.	8an\L	<	4b/)	.	8aa\L	>
.	.	8g#\J)	>	.	.	8gg#\J)	.
=92	=92	=92	=92	=92	=92	=92	=92
(4BB#/	.	(4B#/	.	(2ee\	.	(2eee\	.
4C#/)	<	4c#\	<	.	.	.	.
4E\	.	4e\)	.	8dd\L	<	8ddd\L	<
.	.	.	.	8cc#\J)	.	8ccc#\J)	.
=93	=93	=93	=93	=93	=93	=93	=93
(4E#\	.	(4e#\	.	(8b/L	.	(8bb\L	.
.	.	.	.	8g#/J)	.	8gg#\J)	.
4F#\	.	4f#\	.	4a'/	.	4aa'\	.
4A\)	.	4c#\)	.	(8cc#\L	.	(8aa\L	.
.	.	.	.	8ee\J)	.	8ggn\J)	.
=94	=94	=94	=94	=94	=94	=94	=94
(4CC#/	.	(4C#/	.	4a'/	.	(8ggn\L	.
.	.	.	.	.	.	8ee#\J	.
4DDn/	.	4D/	.	4a'/	.	4ff#'\)	.
4FF#/)	.	4F#/)	.	(8a#/L	.	(8ff#\L	.
.	.	.	.	8cc#/J)	.	8een\J)	.
=95	=95	=95	=95	=95	=95	=95	=95
(4AA#/	.	4A#/	.	4f#'/	.	(8ee\L	.
.	.	.	.	.	.	8cc#\J)	.
4BBn/	.	4Bn/	.	4f#'/	.	4dd'\	.
4EE/)	.	4E/	.	(8g#/L	.	(8eee\L	.
.	.	.	.	&(8b/J&))	.	8ddd\J)	.
=96	=96	=96	=96	=96	=96	=96	=96
(4GG#/	.	(4G#/	.	(8e/L	.	(8ddd\L	.
.	.	.	.	8b/J)	.	8bb\J)	.
4AAn/)	.	4An/)	.	4e'/	.	4ccc#'\	.
*clefC4	*clefC4	*	*	*	*	*	*
(8f#\L	p	[4f#\	p	(4a#/	p	(8ddd\L	p
8e\J)	.	.	.	.	.	8ccc#\J)	.
=97	=97	=97	=97	=97	=97	=97	=97
(8e\L	.	2f#\]	.	4cc#\	.	(8ccc#\L	.
8c#\J)	.	.	.	.	.	8aa#\J)	.
4d'\	.	.	.	4ff#\)	.	4bb'\	.
(8e\L	.	[4e\	.	(4g#/	.	(8ccc#\L	.
8d\J)	.	.	.	.	.	8bb\J)	.
=98	=98	=98	=98	=98	=98	=98	=98
(8d\L	.	2e\]	.	4b\	.	(8bb\L	.
8B\J)	.	.	.	.	.	8gg#\J)	.
4c#'\	.	.	.	4ee\)	.	4aan'\	.
*clefF4	*clefF4	*	*	*	*	*	*
4EE'/	.	(8G#/L	.	(8B/L	.	(8ddd\L	.
.	.	8An/J)	.	8c#/J)	.	8ccc#\J)	.
=99	=99	=99	=99	=99	=99	=99	=99
4EE'/	.	(8A/L	.	(8c#/L	.	(8ccc#\L	.
.	.	8E/J)	.	8e/J)	.	8aa#\J)	.
4E'\	f	4G#'/	f	4d'/	.	4bb'\	.
4EE'/	.	(8E/L	.	(8e/L	f	(8ccc#\L	f
.	.	8D/J)	.	8g#/J)	.	8bb\J)	.
=100	=100	=100	=100	=100	=100	=100	=100
*>B1	*>B1	*>B1	*>B1	*>B1	*>B1	*>B1	*>B1
4EE'/	.	(8d/L	.	(8g#/L	.	(8bb\L	.
.	.	8E/J)	.	8b/J)	.	8gg#\J)	.
4AA'/	.	4E'/	.	4e'/ 4a'/	.	4aan'\	.
(4AA/	p	(4A/	p	(4A/	p	(4a/	p
=101	=101	=101	=101	=101	=101	=101	=101
4GG#/	.	4G#/	.	4G#/	.	4g#/	.
4AA/	.	4A/	.	4A/	.	4a/	.
4Cn/)	.	4cn/)	.	4cn/)	.	4ccn\)	.
=102	=102	=102	=102	=102	=102	=102	=102
(4BB/	.	(4B/	.	(4B/	.	(4b\	.
4Cn/	.	4cn/	.	4cn/	.	4ccn\	.
4E\)	.	4E/)	.	4e/)	.	4ee\)	.
=103	=103	=103	=103	=103	=103	=103	=103
(4FF#/	.	(4F#/	.	(4f#/	.	(4f#/	.
4GGn/	.	4Gn/	.	4gn/	.	4gn/	.
4Cn/)	.	4cn/)	.	4cn/)	.	4ccn/)	.
=104	=104	=104	=104	=104	=104	=104	=104
(4BB/	.	(4B/	.	(4B/	.	(4b\	.
4Cn/	.	4cn/	.	4cn/	.	4ccn\	.
4E/)	.	4E/)	.	4e/)	.	4ee\)	.
=105:|!	=105:|!	=105:|!	=105:|!	=105:|!	=105:|!	=105:|!	=105:|!
*>B2	*>B2	*>B2	*>B2	*>B2	*>B2	*>B2	*>B2
4EE'/	.	(8D/L	.	(8g#/L	.	(8bb\L	.
.	.	8E/J)	.	8b/J)	.	8gg#\J)	.
4AA'/	.	4C#'/	.	4e'/ 4a'/	.	4aan'\	.
4r	.	4r	.	(8a/L	pp	(8ff#\L	pp
.	.	.	.	8g#/J)	.	8ee\J)	.
=106	=106	=106	=106	=106	=106	=106	=106
4r	.	4r	.	(8g#/L	.	(8ee\L	.
.	.	.	.	8e/J)	.	8cc#\J)	.
4r	.	4r	.	4f#'/	.	4dd#'\	.
*clefC4	*clefC4	*	*	*	*	*	*
(8c#\L	pp	(8A/L	pp	4r	.	4r	.
8B\J)	.	8G#/J)	.	.	.	.	.
=107	=107	=107	=107	=107	=107	=107	=107
*>C	*>C	*>C	*>C	*>C	*>C	*>C	*>C
(8B\L	.	(8G#/L	.	4r	.	4r	.
8G#\J)	.	8E#/J)	.	.	.	.	.
4A'\	.	4F#'/	.	4r	.	4r	.
4r	.	4r	.	(8b/L	.	(8gg#\L	.
.	.	.	.	8a/J)	.	8ff#\J)	.
=108	=108	=108	=108	=108	=108	=108	=108
4r	.	4r	.	(8a/L	.	(8ff#\L	.
.	.	.	.	8f#/J)	.	8dd#\J)	.
4r	.	4r	.	4g#'/	.	4ee'\	.
(8g#\L	.	(8B/L	.	4r	.	4r	.
8f#\J)	.	8A/J)	.	.	.	.	.
=109	=109	=109	=109	=109	=109	=109	=109
(8f#\L	.	(8A/L	.	4r	.	4r	.
8d#\J)	.	8F#/J)	.	.	.	.	.
4e'\	.	4G#'/	.	4r	.	4r	.
(8f#\L	.	(8A/L	.	(8d#/L	.	(8f#/L	.
8e\J)	.	8G#/J)	.	8e/J)	.	8g#/J)	.
=110	=110	=110	=110	=110	=110	=110	=110
(8e\L	pp	(8G#/L	pp	(8e/L	pp	(8g#/L	pp
8c#\J)	.	8En/J)	.	8g#/J)	.	8b/J)	.
4d#'\	.	4F#'/	.	4f#'/	.	4a'/	.
*clefF4	*clefF4	*	*	*	*	*	*
(8D#\L	.	(8F#/L	.	(8aa\L	.	(8ccc#\L	.
8E\J)	.	8G#/J)	.	8gg#\J)	.	8bb\J)	.
=111	=111	=111	=111	=111	=111	=111	=111
(8E#\L	.	(8G#/L	.	(8gg#\L	.	(8bb\L	.
8G#\J)	.	8B/J)	.	8ee#\J)	.	8gg#\J)	.
4F#'\	.	4A'/	.	4ff#'\	.	4aa'\	.
*clefC4	*clefC4	*	*	*	*	*	*
(8g#\L	.	(8B/L	.	(8en/L	.	(8g#/L	.
8f#\J)	.	8A/J)	.	8f#/J)	.	8a/J)	.
=112	=112	=112	=112	=112	=112	=112	=112
(8f#\L	.	(8A/L	.	(8f#/L	.	(8a\L	.
8d#\J)	.	8F#/J)	.	8a/J)	.	8cc#\J)	.
4en'\	.	4G#'/	.	4g#'/	.	4b'\	.
(8G#/L	.	(8B/L	.	(8ff#\L	.	(8ddd\L	.
8A/J)	.	8c#/J)	.	8een\J)	.	8ccc#\J)	.
=113	=113	=113	=113	=113	=113	=113	=113
(8A#\L	.	(8c#\L	.	(8ee\L	.	(8ccc#\L	.
8c#\J)	.	8e\J)	.	8cc#\J)	.	8aa#\J)	.
4B'\	.	4d'\	.	4ddn'\	.	4bb'\	.
*clefF4	*clefF4	*	*	*	*	*	*
(4EE/	.	(4E/	.	(8ccc#\L	.	(8eee\L	.
.	.	.	.	8bb\J)	<	8ddd\J)	<
=114	=114	=114	=114	=114	=114	=114	=114
4GG#/	<	4G#/	<	(8ee\L	.	(8ccc#\L	.
.	.	.	.	8dd\)	.	8bb\)	.
4BB/)	.	4B/)	.	(8cc#\	.	(8aan\	.
.	.	.	.	8b\J)	.	8gg#\J)	.
(8E\L	.	(8e\L	.	(4e/	.	(4g#/	.
8Dn\J)	.	8d\J)	.	.	.	.	.
=115	=115	=115	=115	=115	=115	=115	=115
(8C#/L	.	(8c#/L	.	4g#/	.	4b\	.
8BB/J)	.	8B/J)	.	.	.	.	.
(8AA/L	.	(8A/L	.	4b/)	.	4dd\	.
8GG#/J)	.	8G#/J)	.	.	.	.	.
4GG#^;/	.	4G#^;/	.	4d^;/ 4b^;/	.	4ff#^;\)	.
=116	=116	=116	=116	=116	=116	=116	=116
*clefC4	*clefC4	*	*	*	*	*	*
(2f#\	p	(2d/	p	2.r	.	2.r	.
8e\L	.	8c#/L	.	.	.	.	.
8d\J)	.	8B/J)	.	.	.	.	.
=117	=117	=117	=117	=117	=117	=117	=117
(8d\L	.	(8B/L	.	(2cc#\	p	(2ee\	p
8B\J)	.	8G#/J)	.	.	.	.	.
4c#'\	.	4A'/	.	.	.	.	.
4r	.	4r	.	8b\L	.	8dd\L	.
.	.	.	.	8a\J)	.	8cc#\J)	.
=118	=118	=118	=118	=118	=118	=118	=118
(2d\	<	(2f#\	<	(8a/L	.	(8cc#\L	.
.	.	.	.	8f#/J)	.	8a\J)	.
.	.	.	.	4g#'/	.	4b'\	.
8c#\L	>	8e\L	>	4r	.	4r	.
8B\J)	.	8d\J)	.	.	.	.	.
=119	=119	=119	=119	=119	=119	=119	=119
(8B\L	.	(8d\L	.	(2cc#/	<	(2ee\	<
8G#\J)	.	8B\J)	.	.	.	.	.
4A'\	.	4c#'\	.	.	.	.	.
4r	.	4r	.	8b/L	>	8dd\L	>
.	.	.	.	8a/J)	.	8cc#\J)	.
=120	=120	=120	=120	=120	=120	=120	=120
2.r	.	(2ee\	.	(8a/L	.	8cc#\L	.
.	.	.	.	8f#/J)	.	8a\J	.
.	.	.	.	4g#'/	.	4b'\	.
.	.	8dd\L	.	4r	.	4r	.
.	.	8cc#\J)	.	.	.	.	.
=121	=121	=121	=121	=121	=121	=121	=121
(2e\	.	2.r	.	(8b/L	.	(8dd\L	.
.	.	.	.	8g#/J)	.	8b\J)	.
.	.	.	.	4a'/	.	4cc#'\	.
8d\L	.	.	.	4r	.	4r	.
8c#\J)	.	.	.	.	.	.	.
=122	=122	=122	=122	=122	=122	=122	=122
*clefF4	*clefF4	*	*	*	*	*	*
(2E\	.	(2e\	.	(8cc#\L	.	(8aa\L	.
.	.	.	.	8a\J)	.	8ff#\J)	.
.	.	.	.	4b'\	.	4gg#'\	.
8D\L	.	8d\L	.	4r	.	4r	.
8C#\J)	.	8c#\J)	.	.	.	.	.
=123	=123	=123	=123	=123	=123	=123	=123
(8BB/L	f	(8B/L	f	(2ee\	f	(2eee\	f
8GG#/J)	.	8G#/J)	.	.	.	.	.
4AA'/	.	4A'/	.	.	.	.	.
4r	.	4r	.	8dd\L	.	8ddd\L	.
.	.	.	.	8cc#\J)	.	8ccc#\J)	.
=124	=124	=124	=124	=124	=124	=124	=124
4r	.	4r	.	(8b/L	.	(8bb\L	.
.	.	.	.	8g#/J)	.	8gg#\J	.
(8B\L	.	(8d\L	.	4a'/	.	4aa'\)	.
8G#\J	.	8B\J)	.	.	.	.	.
4A'\)	.	4c#'\	.	4r	.	4r	.
=125	=125	=125	=125	=125	=125	=125	=125
4E'\	p	(8G#/L	p	(8d/L	p	(8b/L	p
.	.	8B/J)	.	8e/J)	.	8g#/J)	.
4AA'/	.	4A'/	.	4c#'/	.	4a'/	.
=	=	=	=	=	=	=	=
*>D	*>D	*>D	*>D	*>D	*>D	*>D	*>D
4r	.	4r	.	4r	.	(4ccc#\	p
=126	=126	=126	=126	=126	=126	=126	=126
*	*	*	*	*	*	*^	*
2.r	.	2.r	.	2.r	.	4r	2.a\)	.
.	.	.	.	.	.	4r	.	.
.	.	.	.	.	.	4eee\	.	.
=127	=127	=127	=127	=127	=127	=127	=127	=127
2.r	.	2.r	.	4r	.	4r	&(2.a\&)	.
.	.	.	.	4r	.	4r	.	.
.	.	.	.	(8A/L	p	(4aaa\	.	.
.	.	.	.	8c#/J	.	.	.	.
=128	=128	=128	=128	=128	=128	=128	=128	=128
2.r	.	2.r	.	8e/L	.	4r	[2.a\)	.
.	.	.	.	8a/	.	.	.	.
.	.	.	.	8cc#/	.	4r	.	.
.	.	.	.	(8ee/J)	.	.	.	.
.	.	.	.	8cc#\L	.	4eee\	.	.
.	.	.	.	8aa\J	.	.	.	.
=129	=129	=129	=129	=129	=129	=129	=129	=129
2.r	.	2.r	.	8dd\L	.	4fff#\	2.a\_	.
.	.	.	.	8aa\	.	.	.	.
.	.	.	.	8cc#\	.	4eee\	.	.
.	.	.	.	8aa\	.	.	.	.
.	.	.	.	8b\	.	4ddd\	.	.
.	.	.	.	8aa\J	.	.	.	.
=130	=130	=130	=130	=130	=130	=130	=130	=130
2.r	.	2.r	.	8cc#\L	.	&(2eee\&)	2.a\_	.
.	.	.	.	8aa\	.	.	.	.
.	.	.	.	8b\	.	.	.	.
.	.	.	.	8aa\	.	.	.	.
.	.	.	.	8a\	.	(4ccc#\	.	.
.	.	.	.	8aa\J)	.	.	.	.
=131	=131	=131	=131	=131	=131	=131	=131	=131
2.r	.	2.r	.	(8b\L	.	4ddd\	2.a\_	.
.	.	.	.	8aa\	.	.	.	.
.	.	.	.	8a\	.	4ccc#\	.	.
.	.	.	.	8aa\	.	.	.	.
.	.	.	.	8b\	.	4ddd\	.	.
.	.	.	.	8aa\J)	.	.	.	.
=132	=132	=132	=132	=132	=132	=132	=132	=132
2.r	.	2.r	.	(8b\L	.	8ccc#\L	2.a\_	.
.	.	.	.	8aa\	.	8ddd\J	.	.
.	.	.	.	8cc#\	.	4eee\)	.	.
.	.	.	.	8aa\	.	.	.	.
.	.	.	.	8dd\	.	(4eee\	.	.
.	.	.	.	8cc#\J)	.	.	.	.
=133	=133	=133	=133	=133	=133	=133	=133	=133
2.r	.	2.r	.	(8dd\L	.	4fff#\	2.a\_	.
.	.	.	.	8aa\	.	.	.	.
.	.	.	.	8cc#\	.	4eee\	.	.
.	.	.	.	8aa\	.	.	.	.
.	.	.	.	8b\	.	4ddd\	.	.
.	.	.	.	8aa\J	.	.	.	.
=134	=134	=134	=134	=134	=134	=134	=134	=134
2.r	.	2.r	.	8cc#\L	.	2eee\	2.a\_	.
.	.	.	.	8aa\	.	.	.	.
.	.	.	.	8b\	.	.	.	.
.	.	.	.	8aa\	.	.	.	.
.	.	.	.	8a\	.	4ccc#\	.	.
.	.	.	.	8aa\J)	.	.	.	.
=135	=135	=135	=135	=135	=135	=135	=135	=135
2.r	.	2.r	.	(8b\L	.	4ddd\	2.a\_	.
.	.	.	.	8aa\	.	.	.	.
.	.	.	.	8a\	.	4ccc#\	.	.
.	.	.	.	8aa\	.	.	.	.
.	.	.	.	8ff#\	.	8ddd\L	.	>
.	.	.	.	8dd\J)	.	8fff#\J	.	.
=136	=136	=136	=136	=136	=136	=136	=136	=136
2.r	.	2.r	.	(8ee\L	.	2ccc#\)	2a\]	.
.	.	.	.	8ff#\	.	.	.	.
.	.	.	.	8ee\	.	.	.	.
.	.	.	.	8cc#\J)	.	.	.	.
*	*	*	*	*	*	*v	*v	*
.	.	.	.	(8a\L	.	(4ccc#\	.
.	.	.	.	8cc#\J	.	.	.
=137	=137	=137	=137	=137	=137	=137	=137
*	*	*	*	*	*	*^	*
2.r	.	4r	.	8ee\L	.	4r	2.a\)	.
.	.	.	.	8aa\	.	.	.	.
.	.	4r	.	8ccc#\	.	4r	.	.
.	.	.	.	8eee\J)	.	.	.	.
.	.	(8A\L	p	(8ee\L	.	4eee\	.	.
.	.	8c#\J	.	8aa\J	.	.	.	.
=138	=138	=138	=138	=138	=138	=138	=138	=138
4r	.	8e\L	.	8ee\L	.	4r	&(2.a\&)	.
.	.	8a\	.	8ccc#\	.	.	.	.
4r	.	8cc#\	.	8ee\	.	4r	.	.
.	.	8ee\J)	.	8ccc#\J)	.	.	.	.
(8AA/L	p	[4A/	.	(8ee\L	.	(4aaa\	.	.
8C#/J	.	.	.	8aa\J	.	.	.	.
=139	=139	=139	=139	=139	=139	=139	=139	=139
8E\L	.	2.A/_	.	8ee\L	.	4r	[2.a\)	.
8A\	.	.	.	8ccc#\	.	.	.	.
8c#\	.	.	.	8ee\	.	4r	.	.
8e\J)	.	.	.	8cc#\J)	.	.	.	.
[4AA/	.	.	.	(8cc#\L	.	4eee\	.	.
.	.	.	.	8aa\J	.	.	.	.
=140	=140	=140	=140	=140	=140	=140	=140	=140
2.AA/_	.	2.A/_	.	8dd\L	.	4fff#\	2.a\_	.
.	.	.	.	8aa\	.	.	.	.
.	.	.	.	8cc#\	.	4eee\	.	.
.	.	.	.	8aa\	.	.	.	.
.	.	.	.	8b\	.	4ddd\	.	.
.	.	.	.	8aa\J)	.	.	.	.
=141	=141	=141	=141	=141	=141	=141	=141	=141
2.AA/_	.	2.A/_	.	(8cc#\L	.	&(2eee\&)	2.a\_	.
.	.	.	.	8aa\	.	.	.	.
.	.	.	.	8b\	.	.	.	.
.	.	.	.	8aa\	.	.	.	.
.	.	.	.	8a\	.	(4ccc#\	.	.
.	.	.	.	8aa\J)	.	.	.	.
=142	=142	=142	=142	=142	=142	=142	=142	=142
2.AA/_	.	2.A/_	.	(8b\L	.	4ddd\	2.a\_	.
.	.	.	.	8aa\	.	.	.	.
.	.	.	.	8a\	.	4ccc#\	.	.
.	.	.	.	8aa\	.	.	.	.
.	.	.	.	8b\	.	4ddd\	.	.
.	.	.	.	8aa\J	.	.	.	.
=143	=143	=143	=143	=143	=143	=143	=143	=143
2.AA/_	.	2.A/_	.	8b\L	.	8ccc#\L	(2.a\_	.
.	.	.	.	8aa\	.	8ddd\J)	.	.
.	.	.	.	8cc#\	.	4eee\	.	.
.	.	.	.	8aa\	.	.	.	.
.	.	.	.	8dd\	.	4eee\	.	.
.	.	.	.	8cc#\J)	.	.	.	.
=144	=144	=144	=144	=144	=144	=144	=144	=144
2.AA/_	.	2.A/_	.	(8dd\L	.	4fff#\	2.a\_	.
.	.	.	.	8aa\	.	.	.	.
.	.	.	.	8cc#\	.	4eee\	.	.
.	.	.	.	8aa\	.	.	.	.
.	.	.	.	8b\	.	4ddd\	.	.
.	.	.	.	8aa\J)	.	.	.	.
=145	=145	=145	=145	=145	=145	=145	=145	=145
2.AA/_	.	2.A/_	.	(8cc#\L	.	2eee\	2.a\_	.
.	.	.	.	8aa\	.	.	.	.
.	.	.	.	8b\	.	.	.	.
.	.	.	.	8aa\	.	.	.	.
.	.	.	.	8a\	.	4ccc#\	.	.
.	.	.	.	8aa\J)	.	.	.	.
=146	=146	=146	=146	=146	=146	=146	=146	=146
2.AA/_	.	2.A/_	.	(8b\L	.	4ddd\	2.a\_	.
.	.	.	.	8aa\	.	.	.	.
.	.	.	.	8a\	.	4ccc#\	.	.
.	.	.	.	8aa\	.	.	.	.
.	.	.	.	8ff#\	.	8ddd\L	.	.
.	.	.	.	8dd\J)	.	&(8fff#\J&)	.	.
=147	=147	=147	=147	=147	=147	=147	=147	=147
2AA/]	.	2A/]	.	(8ee\L	.	2ccc#/	2a\]	.
.	.	.	.	8a\	.	.	.	.
.	.	.	.	8b\	.	.	.	.
.	.	.	.	8cc#\J)	.	.	.	.
*	*	*	*	*	*	*v	*v	*
4E#\	pp	(8cc#\L	pp	4g#'/ 4b'/	pp	4r	.
.	.	8b#\J	.	.	.	.	.
=148	=148	=148	=148	=148	=148	=148	=148
4E#\	.	8cc#\L	.	4c#'/ 4g#'/	.	4r	.
.	.	8b\	.	.	.	.	.
4E#\	.	8a\	.	4c#'/ 4g#'/	.	4r	.
.	.	8g#\J)	.	.	.	.	.
4F#'\	.	4r	.	4c#'/ 4a'/	.	(8ff#\L	pp
.	.	.	.	.	.	8ee#\J	.
=149	=149	=149	=149	=149	=149	=149	=149
4F#'\	.	4r	.	4c#'/ 4a'/	.	8ff#\L	.
.	.	.	.	.	.	8gg#\	.
4F#'\	.	4r	.	4c#'/ 4a'/	.	8aa\	.
.	.	.	.	.	.	8ff#\J)	.
4D#'\	.	(8b\L	.	4B'/ 4f#'/	.	4r	.
.	.	8a#\J	.	.	.	.	.
=150	=150	=150	=150	=150	=150	=150	=150
4D#'\	.	8b\L	.	4B'/ 4f#'/	.	4r	.
.	.	8an\	.	.	.	.	.
4D#'\	.	8g#\	.	4B'/ 4f#'/	.	4r	.
.	.	8f#\J)	.	.	.	.	.
4En'\	.	4r	.	4B'/ 4g#'/	.	(8een\L	.
.	.	.	.	.	.	8dd#\J	.
=151	=151	=151	=151	=151	=151	=151	=151
4E'\	.	2.r	.	4B'/ 4g#'/	.	8ee\L	.
.	.	.	.	.	.	8ff#\	.
4E'\	.	.	.	4B'/ 4g#'/	.	8gg#\	.
.	.	.	.	.	.	8ee\J)	.
4F#'\	.	.	.	4B'/ 4a'/	.	(8aa\L	.
.	.	.	.	.	.	8gg#\J	.
=152	=152	=152	=152	=152	=152	=152	=152
4F#'\	.	2.r	.	4B'/ 4a'/	.	8aa\L	.
.	.	.	.	.	.	8gg#\	.
4F#'\	.	.	.	4B'/ 4a'/	.	8aa\	.
.	.	.	.	.	.	8bb\	.
4F#'\	.	.	.	4B'/ 4a'/	.	8ccc#\	.
.	.	.	.	.	.	8ddd#\J	.
=153	=153	=153	=153	=153	=153	=153	=153
4G#'\	.	2.r	.	4B'/ 4e'/	.	8eee\L	.
.	.	.	.	.	.	8ddd#\	.
4G#'\	.	.	.	4e'/ 4b'/	.	8eee\	.
.	.	.	.	.	.	8bb\	.
4A'\	.	.	.	4e'/ 4cc#'/	.	8ccc#\	.
.	.	.	.	.	.	8aa\J	.
=154	=154	=154	=154	=154	=154	=154	=154
4B'\	.	2.r	.	4e'/ 4b'/	.	8gg#\L	.
.	.	.	.	.	.	8ff##\	.
4B'\	.	.	.	4e'/ 4ee'/	.	8gg#\	.
.	.	.	.	.	.	8bb\	.
4BB'/	.	.	.	4f#'/ 4dd#'/	.	8aa\	.
.	.	.	.	.	.	8ff#\J)	.
=155	=155	=155	=155	=155	=155	=155	=155
4E\	.	(8e\L	.	4g#'/ 4ee'/	.	(8ee\L	.
.	.	8g#\	.	.	.	8gg#\	.
4E\	.	8a\	.	4G#/	.	8aa\	.
.	.	8b\J)	.	.	.	8bb\J)	.
4E#\	.	(8cc#\L	.	4G#/	.	4c#/ 4g#/	.
.	.	8b#\J	.	.	.	.	.
=156	=156	=156	=156	=156	=156	=156	=156
4E#'\	.	8cc#\L	.	4G#/	.	4c#'/ 4g#'/	.
.	.	8bn\	.	.	.	.	.
4E#'\	.	8a\	.	4G#/	.	4c#'/ 4g#'/	.
.	.	8g#\J)	.	.	.	.	.
4A'\	.	(8f#\L	.	(8ff#\L	.	4c#'/ 4f#'/	.
.	.	8e#\J	.	8ee#\J	.	.	.
=157	=157	=157	=157	=157	=157	=157	=157
4A\	.	8f#\L	.	8ff#\L	.	4c#/ 4f#/	.
.	.	8g#\	.	8gg#\	.	.	.
4A\	.	8a\	.	8aa\	.	4c#'/ 4f#'/	.
.	.	8f#\J)	.	8ff#\J)	.	.	.
4D#\	.	(8b\L	.	4r	.	4B'/ 4f#'/	.
.	.	8a#\J	.	.	.	.	.
=158	=158	=158	=158	=158	=158	=158	=158
4D#\	.	8b\L	.	4r	.	4B'/ 4f#'/	.
.	.	8an\	.	.	.	.	.
4D#\	.	8g#\	.	4r	.	4B'/ 4f#'/	.
.	.	8f#\J)	.	.	.	.	.
4G#\	.	(8en\L	.	(8een\L	.	4B'/	.
.	.	8d#\J	.	8dd#\J	.	.	.
=159	=159	=159	=159	=159	=159	=159	=159
4G#\	.	8e\L	.	8ee\L	.	4B'/	.
.	.	8f#\	.	8ff#\	.	.	.
4En\	.	8g#\	.	8gg#\	.	4b'\	.
.	.	8e\J)	.	8ee\J)	.	.	.
4AA#'/	.	(8f#\L	.	4c#/	.	(8ff#\L	.
.	.	8e#\J	<	.	.	8ee#\J	<
=160	=160	=160	=160	=160	=160	=160	=160
4A#'\	<	8f#\L	.	4c#'/	<	8ff#\L	.
.	.	8en\	.	.	.	8een\	.
4A#'\	.	8d'\	.	4c#'/ 4f#'/	.	8ddn\	.
.	.	8c#\J)	.	.	.	8cc#\J)	.
(8B\L	.	4r	.	(8b/L	.	4r	.
8A#\J	.	.	.	8a#/J	.	.	.
=161	=161	=161	=161	=161	=161	=161	=161
8B\L	.	4r	.	8b/L	.	4r	.
8c#\	.	.	.	8cc#/	.	.	.
8d\	.	4r	.	8dd/	.	4r	.
8B\J)	.	.	.	8b/J)	.	.	.
4GG#'/	.	(8e\L	.	4B'/	.	(8ee\L	.
.	.	8d#\J	.	.	.	8dd#\J	.
=162	=162	=162	=162	=162	=162	=162	=162
4G#'\	.	8e\L	.	4B'/	.	8ee\L	.
.	.	8dn\	.	.	.	8ddn\	.
4G#'\	.	8c#\	.	4B'/ 4e'/	.	8cc#\	.
.	.	8B\J)	.	.	.	8b\J)	.
(8An\L	.	4r	.	(8an/L	.	4r	.
8G#\J	.	.	.	8g#/J	.	.	.
=163	=163	=163	=163	=163	=163	=163	=163
8A\L	.	4r	.	8a/L	.	4r	.
8B\	.	.	.	8b/	.	.	.
8c#\	.	4r	.	8cc#/	.	4r	.
8A\J)	.	.	.	8a/J)	p	.	.
4e'\	p	(8E/L	p	4g#'/ 4b'/	.	4b'\ 4bb'\	p
.	.	8G#/J	.	.	.	.	.
=164	=164	=164	=164	=164	=164	=164	=164
4e'\	.	8B\L	.	4g#'/ 4b'/	.	4b'\ 4bb'\	.
.	.	8e\	.	.	.	.	.
4e'\	.	8g#\	.	4g#'/ 4b'/	.	4b'\ 4bb'\	.
.	.	8b\J)	.	.	.	.	.
4d#'\	.	(8a\L	.	4f#'/ 4b'/	.	4b'\ 4bb'\	.
.	.	8f#\J	.	.	.	.	.
=165	=165	=165	=165	=165	=165	=165	=165
4d#'\	.	8d#/L	.	4f#'/ 4b'/	.	4b'\ 4bb'\	.
.	.	8B/	.	.	.	.	.
4d#'\	.	8A/	.	4f#'/ 4b'/	.	4b'\ 4bb'\	.
.	.	8F#/J)	.	.	.	.	.
4e'\	.	(8G#/L	.	4g#'/ 4b'/	.	4b'\ 4bb'\	.
.	.	8B/J	.	.	.	.	.
=166	=166	=166	=166	=166	=166	=166	=166
4e\	.	8A/L	.	4g#/ 4b/	.	4b\ 4bb\	.
.	.	8G#/	.	.	.	.	.
4e\	.	8F#/	.	4g#/ 4b/	.	4b\ 4bb\	.
.	.	8E/J)	.	.	.	.	.
4B\	.	(8g#\L	.	4d#/ 4b/	.	4b\ 4bb\	.
.	.	8f#\J	.	.	.	.	.
=167	=167	=167	=167	=167	=167	=167	=167
4B\	.	8e\L	.	4f#/ 4b/	.	4b\ 4bb\	.
.	.	8d#\	.	.	.	.	.
4B\	.	8c#\	.	4f#/ 4b/	.	4b\ 4bb\	.
.	.	8B\J)	.	.	.	.	.
4e\	.	(8E/L	.	4g#/ 4b/	.	4b\ 4bb\	.
.	.	8G#/J	.	.	.	.	.
=168	=168	=168	=168	=168	=168	=168	=168
4e\	.	8B\L	.	4g#/ 4b/	.	4b\ 4bb\	.
.	.	8e\	.	.	.	.	.
4e\	.	8g#\	.	4g#/ 4b/	.	4b\ 4bb\	.
.	.	8b\J)	.	.	.	.	.
4d#\	.	(8a\L	.	4f#/ 4b/	.	4b\ 4bb\	.
.	.	8f#\J	.	.	.	.	.
=169	=169	=169	=169	=169	=169	=169	=169
4d#\	.	8d#/L	.	4f#/ 4b/	.	4b\ 4bb\	.
.	.	8B/	.	.	.	.	.
4d#\	.	8A/	.	4f#/ 4b/	.	4b\ 4bb\	.
.	.	8F#/J)	.	.	.	.	.
4e\	.	(8G#/L	.	4g#/ 4b/	.	4b\ 4bb\	.
.	.	8B/J	.	.	.	.	.
=170	=170	=170	=170	=170	=170	=170	=170
4e\	.	8A/L	.	4g#/ 4b/	.	4b\ 4bb\	.
.	.	8G#/	.	.	.	.	.
4e\	.	8F#/	.	4g#/ 4b/	.	4b\ 4bb\	.
.	.	8E/J)	.	.	.	.	.
4B\	.	(8g#\L	.	4d#/ 4b/	.	4b\ 4bb\	.
.	.	8f#\J	.	.	.	.	.
=171	=171	=171	=171	=171	=171	=171	=171
4B\	.	8e\L	.	4f#/ 4b/	.	4b\ 4bb\	.
.	.	8d#\	.	.	.	.	.
4B\	.	8c#\	.	4f#/ 4b/	.	4b\ 4bb\	.
.	.	8B\J)	.	.	.	.	.
*clefC4	*clefC4	*	*	*	*	*	*
4e#\	.	(8cc#\L	.	4g#/	.	4gg#\	.
.	.	8b#\J	.	.	.	.	.
=172	=172	=172	=172	=172	=172	=172	=172
4e#\	.	8cc#\L	.	4g#/	.	4gg#\	.
.	.	8bn\	.	.	.	.	.
4e#\	.	8a\	.	4g#/	.	4gg#\	.
.	.	8g#\J)	.	.	.	.	.
4a\	.	(8f#\L	.	(8ff#\L	.	4ccc#\	.
.	.	8e#\J	.	8ee#\J	.	.	.
=173	=173	=173	=173	=173	=173	=173	=173
4a\	.	8f#\L	.	8ff#\L	.	4ccc#\	.
.	.	8g#\	.	8gg#\	.	.	.
4a\	.	8a\	.	8aa\	.	4ccc#\	.
.	.	8f#\J)	.	8ff#\J)	.	.	.
4d#\	.	(8b\L	.	4r	.	4ff#\	.
.	.	8a#\J	.	.	.	.	.
=174	=174	=174	=174	=174	=174	=174	=174
4d#\	.	8b\L	.	4r	.	4ff#\	.
.	.	8an\	.	.	.	.	.
4d#\	.	8g#\	.	4r	.	4ff#\	.
.	.	8f#\J)	.	.	.	.	.
4g#\	.	(8en\L	.	(8een\L	.	4bb\	.
.	.	8d#\J	.	8dd#\J	.	.	.
=175	=175	=175	=175	=175	=175	=175	=175
4g#\	.	8e\L	.	8ee\L	.	4bb\	.
.	.	8f#\	.	8ff#\	.	.	.
4g#\	.	8g#\	.	8gg#\	.	4bb\	.
.	.	8e\J)	.	8ee\J)	.	.	.
4f#\	.	(8a\L	.	4r	.	4b\ 4bb\	.
.	.	8g#\J	.	.	.	.	.
=176	=176	=176	=176	=176	=176	=176	=176
4f#\	.	8a\L	.	4r	.	4b\ 4bb\	.
.	.	8b\	<	.	.	.	.
4f#\	.	8cc#\	.	4a'/	.	4b\ 4bb\	.
.	.	8dd#\	>	.	.	.	.
4f#\	.	8ee\	.	4a'/	.	4b\ 4bb\	.
.	.	8dd#\J	.	.	.	.	.
=177	=177	=177	=177	=177	=177	=177	=177
4g#\	.	8ee\L	.	4b'/	.	4b\ 4bb\	.
.	.	8dd#\	.	.	.	.	.
*clefF4	*clefF4	*	*	*	*	*	*
4G#\	.	8ee\	.	4b'/	.	4ee\	.
.	.	8b\	.	.	.	.	.
4A\	.	8cc#\	.	4c#'/ 4e'/	.	4ee\	.
.	.	8a\J)	.	.	.	.	.
=178	=178	=178	=178	=178	=178	=178	=178
4B\	.	(8g#\L	.	4B'/ 4e'/	.	4ee\	.
.	.	8f##\	.	.	.	.	.
4B\	.	8g#\	.	4B'/ 4e'/	.	4ee\	.
.	.	8b\	.	.	.	.	.
4B\	.	8a\	.	4A'/ 4f#'/	.	4dd#\	.
.	.	8f#\J)	.	.	.	.	.
=179	=179	=179	=179	=179	=179	=179	=179
4E\	.	(8e\L	.	4G#'/	.	4ee\	.
.	.	8d#\	.	.	.	.	.
4GG#/	.	8e\	.	4B'/	.	(8ee\L	.
.	.	8e#\J)	.	.	.	8ee#\J	.
4AA#/	.	(8f#\L	.	4c#'/	.	8ff#\L	.
.	.	8e#\J	.	.	.	8ee#\J	.
=180	=180	=180	=180	=180	=180	=180	=180
4A#\	.	8f#\L	.	4cc#\	.	8ff#\L	.
.	.	8en\	.	.	.	8een\	.
4A#\	.	8dn'\	.	4cc#\	.	8ddn\	.
.	.	8c#\J)	.	.	.	8cc#\J)	.
4r	.	4d'\	.	4f#/	.	(8b\L	.
.	.	.	.	.	.	8a#\J	.
=181	=181	=181	=181	=181	=181	=181	=181
4r	.	4d'\	.	4f#/	.	8b\L	.
.	.	.	.	.	.	8cc#\	.
4r	.	4d'\	.	4f#/	.	8dd\	.
.	.	.	.	.	.	8b\J)	.
4GG#/	.	(8e\L	.	4B/	.	(8ee\L	.
.	.	8d#\J	.	.	.	8dd#\J	.
=182	=182	=182	=182	=182	=182	=182	=182
4G#\	.	8e\L	.	4b\	.	8ee\L	.
.	.	8d\	.	.	.	8ddn\	.
4G#\	.	8c#\	.	4b\	.	8cc#\	.
.	.	8B\J)	.	.	.	8b\J)	.
4r	.	4c#'\	p	4e/	p	(8an/L	p
.	.	.	.	.	.	8g#/J	.
=183	=183	=183	=183	=183	=183	=183	=183
4r	.	4c#'\	.	4e/ 4ee/	.	8a/L	.
.	.	.	.	.	.	8b/	.
4r	.	4c#'\	.	4e/ 4ee/	.	8cc#/	.
.	.	.	.	.	.	8b/J)	.
4An'\	p	4c#'\	.	4a\ 4ee\	.	(8a\L	.
.	.	.	.	.	.	8cc#\J	.
=184	=184	=184	=184	=184	=184	=184	=184
4A'\	.	4c#\	.	4a\ 4ee\	.	8ee\L	.
.	.	.	.	.	.	8aa\	.
4A'\	.	4c#\	.	4a\ 4ee\	.	8ccc#\	.
.	.	.	.	.	.	8eee\J)	.
4E'\	.	4B/ 4d/	.	4g#\ 4ee\	.	(8ddd\L	.
.	.	.	.	.	.	8bb\J	.
=185	=185	=185	=185	=185	=185	=185	=185
4E\	.	4B/ 4d/	.	4g#\ 4ee\	.	8gg#\L	.
.	.	.	.	.	.	8ee\	.
4E\	.	4B/ 4d/	.	4g#\ 4ee\	.	8dd\	.
.	.	.	.	.	.	8b\J)	.
4AA/	.	4E/ 4c#/	.	4a\ 4ee\	.	(8cc#\L	.
.	.	.	.	.	.	8ee\J	.
=186	=186	=186	=186	=186	=186	=186	=186
4AA/	.	4E/ 4c#/	.	4a\ 4ee\	.	8dd\L	.
.	.	.	.	.	.	8cc#\	.
4AA/	.	4E/ 4c#/	.	4a\ 4ee\	.	8b\	.
.	.	.	.	.	.	8a\J)	.
4E\	.	4E/ 4B/	.	4g#\ 4ee\	.	(8cc#\L	.
.	.	.	.	.	.	8b\J	.
=187	=187	=187	=187	=187	=187	=187	=187
4E\	.	4E/ 4B/	.	4g#\ 4ee\	.	8a/L	.
.	.	.	.	.	.	8g#/	.
4E\	.	4E/ 4B/	.	4g#\ 4ee\	.	8f#/	.
.	.	.	.	.	.	8e/J)	.
4AA/	.	4E/ 4c#/	.	4a\ 4ee\	.	(8a\L	.
.	.	.	.	.	.	8cc#\J	.
=188	=188	=188	=188	=188	=188	=188	=188
4AA/	.	4E/ 4c#/	.	4a\ 4ee\	.	8ee\L	.
.	.	.	.	.	.	8aa\	.
4AA/	.	4E/ 4c#/	.	4a\ 4ee\	.	8ccc#\	.
.	.	.	.	.	.	8eee\J)	.
4EE/	.	4B/ 4d/	.	4g#\ 4ee\	.	(8ddd\L	.
.	.	.	.	.	.	8bb\J	.
=189	=189	=189	=189	=189	=189	=189	=189
4EE/	.	4B/ 4d/	.	4g#\ 4ee\	.	8gg#\L	.
.	.	.	.	.	.	8ee\	.
4EE/	.	4B/ 4d/	.	4g#\ 4ee\	.	8dd\	.
.	.	.	.	.	.	8b\J)	.
4AA/	.	4E/ 4c#/	.	4a\ 4ee\	.	(8cc#\L	.
.	.	.	.	.	.	8ee\J	.
=190	=190	=190	=190	=190	=190	=190	=190
4AA/	.	4E/ 4c#/	.	4a\ 4ee\	.	8dd\L	.
.	.	.	.	.	.	8cc#\	.
4AA/	.	4E/ 4c#/	.	4a\ 4ee\	.	8b\	.
.	.	.	.	.	.	8a\J)	.
4E\	.	4E/ 4B/	.	4g#\ 4ee\	.	(8cc#\L	.
.	.	.	.	.	.	8b\J	.
=191	=191	=191	=191	=191	=191	=191	=191
4E\	.	4E/ 4B/	.	4g#\ 4ee\	.	8a/L	.
.	.	.	.	.	.	8g#/	.
4E\	.	4E/ 4B/	.	4g#\ 4ee\	.	8f#/	.
.	.	.	.	.	.	8e/J)	.
(8f#\L	.	(8A/L	.	4r	.	4r	.
8e#\J	.	8G#/J	.	.	.	.	.
=192	=192	=192	=192	=192	=192	=192	=192
8f#\L	.	8F#/L	.	4r	.	4r	.
8en\	.	8G#/	.	.	.	.	.
8d\	.	8A/	.	4r	.	4r	.
8c#\J)	.	8A#/J)	.	.	.	.	.
4r	.	(8d\L	.	(8f#/L	.	(8bb\L	.
.	.	8c#\J	.	8e/J	.	8aa#\J	.
=193	=193	=193	=193	=193	=193	=193	=193
2.r	.	8d\L	.	8f#/L	.	8bb\L	.
.	.	8c#\	.	8e/	.	8ccc#\	.
.	.	8B\	.	8d/	.	8ddd\	.
.	.	8d\J)	.	8f#/J)	.	8bb\J)	.
.	.	(8g#\L	.	(8ee\L	.	4r	.
.	.	8f#\J	.	8dd#\J	.	.	.
=194	=194	=194	=194	=194	=194	=194	=194
4r	.	8e\L	.	8ee\L	.	4r	.
.	.	8f#\	.	8ddn\	.	.	.
4r	.	8gn\	.	8cc#\	.	4r	.
.	.	8g#\J)	.	8b\J)	.	.	.
(8c#\L	.	(8e\L	.	(8ee\L	.	(8aan\L	.
8B\J	.	8g#\J	.	8dd\J	.	8gg#\J	.
=195	=195	=195	=195	=195	=195	=195	=195
8c#\L	.	8e\L	.	8ee\L	.	8aa\L	.
8B\	.	8g#\	.	8dd\	.	8bb\	.
8A\	.	8a\	.	8cc#\	.	8ccc#\	.
8c#\J)	.	8e\J)	.	8ee\J)	.	8aa\J)	.
4r	.	4f#'\	.	4a'/	.	(8dd\L	.
.	.	.	.	.	.	8cc#\J	.
=196	=196	=196	=196	=196	=196	=196	=196
2.r	.	4f#'\	.	4a'/	.	8dd\L	.
.	.	.	.	.	.	8ee\	<
.	.	4d\	<	4f#'/ 4a'/	<	8ff#\	.
.	.	.	.	.	.	8gg#\J	.
.	.	4d'\	.	4f#'/ 4a'/	.	8aa\L	.
.	.	.	.	.	.	8gg#\J	.
=197	=197	=197	=197	=197	=197	=197	=197
2.r	.	4c#'\	p	4e'/ 4a'/	p	8aa\L	p
.	.	.	.	.	.	8gg#\	.
.	.	4c#'\	.	4e'/ 4a'/	.	8aa\	.
.	.	.	.	.	.	8ee\	.
.	.	4d'\	.	4f#'/ 4a'/	.	8ff#\	.
.	.	.	.	.	.	8dd\J	.
=198	=198	=198	=198	=198	=198	=198	=198
2.r	.	4e'\	.	4a'/	.	8cc#\L	.
.	.	.	.	.	.	8b#\	.
.	.	4E/	.	4A/	.	8cc#\	.
.	.	.	.	.	.	8ee\	.
.	.	4E/	.	4G#/	.	8dd\	.
.	.	.	.	.	.	8bn\J)	.
=199	=199	=199	=199	=199	=199	=199	=199
4r	.	4A/	.	4c#/	.	(8a\L	.
.	.	.	.	.	.	8cc#\	.
4r	.	4A/	.	4c#/	.	8dd\	.
.	.	.	.	.	.	8ee\J	.
4AA#'/	.	4F#/	.	4c#/ 4f#/	.	8ff#\L	.
.	.	.	.	.	.	8ee#\J	<
=200	=200	=200	=200	=200	=200	=200	=200
4AA#'/	<	4F#/	<	4c#/ 4f#/	<	8ff#\L	.
.	.	.	.	.	.	8een\	.
4AA#'/	.	4F#/	.	4c#/ 4f#/	.	8dd\	.
.	.	.	.	.	.	8cc#\J)	.
4D'/	.	4F#/	.	4f#/	.	(8b\L	.
.	.	.	.	.	.	8a#\J	.
=201	=201	=201	=201	=201	=201	=201	=201
4D/	.	4F#/	.	4f#/	.	8b\L	.
.	.	.	.	.	.	8cc#\	.
4D/	.	4F#/	.	4f#/	.	8dd\	.
.	.	.	.	.	.	8b\J)	.
4GG#/	.	4B/	.	4e/	.	(8ee\L	.
.	.	.	.	.	.	8dd#\J	.
=202	=202	=202	=202	=202	=202	=202	=202
4GG#/	.	4E/	.	4B/ 4e/	.	8ee\L	.
.	.	.	.	.	.	8ddn\	.
4GG#/	.	4E/	.	4B/ 4e/	.	8cc#\	.
.	.	.	.	.	.	8b\J)	.
4C#/	.	4E/	.	4e/	.	(8an/L	.
.	.	.	.	.	.	8g#/J	.
=203	=203	=203	=203	=203	=203	=203	=203
4C#/	.	4E/	.	4e/	.	8a/L	.
.	.	.	.	.	.	8b/	.
4C#/	.	4E/	.	4e/	.	8cc#/	.
.	.	.	.	.	.	8a/J)	.
4F#\	.	4A/	.	4d/	.	(8dd\L	.
.	.	.	.	.	.	8cc#\J	.
=204	=204	=204	=204	=204	=204	=204	=204
4F#\	.	4A/	.	4d/	.	8dd\L	.
.	.	.	.	.	.	8ee\	.
4F#\	.	4A/	.	4d/	.	8ff#\	.
.	.	.	.	.	.	8gg#\J	.
4D\	.	4A/	.	4f#/	.	8aa\L	.
.	.	.	.	.	.	8gg#\J)	.
=205	=205	=205	=205	=205	=205	=205	=205
4C#/	.	4A/	.	4e/	.	(8aa\L	.
.	.	.	.	.	.	8gg#\	.
4C#/	.	4A/	.	4e/	.	8aa\	.
.	.	.	.	.	.	8ee\J	.
4D\	.	4A/	.	4f#/	.	8ff#\L	.
.	.	.	.	.	.	8dd\J	.
=206	=206	=206	=206	=206	=206	=206	=206
4E\	.	4A/	.	4e/	.	8cc#\L	.
.	.	.	.	.	.	8b#\	.
4E\	.	4A/	.	4e/	.	8cc#\	.
.	.	.	.	.	.	8ee\J	.
4E\	.	4G#/	.	4e/	.	8dd\L	.
.	.	.	.	.	.	8bn\J	.
=207	=207	=207	=207	=207	=207	=207	=207
4A\	.	4c#\	.	4e/	.	8a\L)	.
.	.	.	.	.	.	(8aa\	.
4A\	.	4c#\ 4a\	.	4e/	.	8bb\	.
.	.	.	.	.	.	8ccc#\	.
4F#\	f	4d\	.	4a/	.	8ddd\	f
.	.	.	.	.	.	8ccc#\J	.
=208	=208	=208	=208	=208	=208	=208	=208
4F#\	.	4d\	f	4a/	f	8ddd\L	.
.	.	.	.	.	.	8eee\	.
4D\	.	4A/	.	4a/	.	8fff#\	.
.	.	.	.	.	.	8ggg#\	.
4D\	p	4A/	p	4f#/ 4a/	p	8aaa'\)	.
.	.	.	.	.	.	(8gg#\J	p
=209	=209	=209	=209	=209	=209	=209	=209
4C#/	.	4A/	.	4e/ 4a/	.	8aa\L	.
.	.	.	.	.	.	8gg#\	.
4C#/	.	4A/	.	4e/ 4a/	.	8aa\	.
.	.	.	.	.	.	8ee\	.
4D\	.	4A/	.	4f#/ 4a/	.	8ff#\	.
.	.	.	.	.	.	8dd\J)	.
=210	=210	=210	=210	=210	=210	=210	=210
4E\	.	4A/	.	4e/ 4a/	.	(8cc#\L	.
.	.	.	.	.	.	8b#\	.
4E\	.	4A/	.	4e/	.	8cc#\	.
.	.	.	.	.	.	8ee\J	.
4EE/	.	4G#/	.	4e/	.	8dd\L	.
.	.	.	.	.	.	8bn\J)	.
=211	=211	=211	=211	=211	=211	=211	=211
4AA/	.	4A/	.	4c#/ 4e/	.	(8a\L	.
.	.	.	.	.	.	8cc#\	.
4CC#'/	f	4C#'/	f	4r	.	8ee\	f
.	.	.	.	.	.	8aa\J	.
4CC#/	.	4C#'/	.	4r	.	4ccc#'\)	.
=212	=212	=212	=212	=212	=212	=212	=212
2.CC#'/	.	2.C#'/	.	2.r	.	2.r	.
=213	=213	=213	=213	=213	=213	=213	=213
2.DD#'/	.	2.D#'/	.	2.r	.	2.r	.
=214	=214	=214	=214	=214	=214	=214	=214
4AA'/	.	4A'/	.	2.r	.	2.r	.
4GG#'/	.	4G#'/	.	.	.	.	.
4FF#'/	.	4F#'/	.	.	.	.	.
=215	=215	=215	=215	=215	=215	=215	=215
4GG#'/	.	4G#'/	.	2.r	.	2.r	.
4GG#'/	.	4G#'/	.	.	.	.	.
4GG#'/	.	4G#'/	.	.	.	.	.
=216	=216	=216	=216	=216	=216	=216	=216
2.BB#'/	.	2.B#'/	.	2.r	.	2.r	.
=217	=217	=217	=217	=217	=217	=217	=217
2.C#'/	.	2.c#'/	.	2.r	.	2.r	.
=218	=218	=218	=218	=218	=218	=218	=218
4AA'/	.	4A'/	.	2.r	.	4r	.
4FF#'/	.	4F#'/	.	.	.	4r	.
4GG#'/	.	4G#'/	.	.	.	(8c#/L	f
.	.	.	.	.	.	8e/J	.
=219	=219	=219	=219	=219	=219	=219	=219
4CC#'/	.	4C#'/	.	4r	.	8g#\L	.
.	.	.	.	.	.	8cc#\	.
4CC#'/	.	4C#'/	.	4c#'/	f	8ee\	.
.	.	.	.	.	.	8gg#\J	.
4CC#'/	.	4C#'/	.	4c#'/	.	8ccc#\L	.
.	.	.	.	.	.	8eee\J)	.
=220	=220	=220	=220	=220	=220	=220	=220
2.CC#'/	.	2.C#'/	.	2.c#'/	.	4ggg#'\	.
.	.	.	.	.	.	4cccc#'\	.
.	.	.	.	.	.	4r	.
=221	=221	=221	=221	=221	=221	=221	=221
2.DD#/	.	2.D#/	.	2.d#'/	.	2.r	.
=222	=222	=222	=222	=222	=222	=222	=222
4AA'/	.	4A'/	.	4a'/	.	2.r	.
4GG#'/	.	4G#'/	.	4g#'/	.	.	.
4FF#'/	.	4F#'/	.	4f#'/	.	.	.
=223	=223	=223	=223	=223	=223	=223	=223
4GG#'/	.	4G#'/	.	4g#'/	.	2.r	.
4GG#'/	.	4G#'/	.	4g#'/	.	.	.
4GG#'/	.	4G#'/	.	4g#'/	.	.	.
=224	=224	=224	=224	=224	=224	=224	=224
*M2/2	*M2/2	*M2/2	*M2/2	*M2/2	*M2/2	*M2/2	*M2/2
2BB#'/	.	2B#'/	.	2b#'/	.	1r	.
2BBB#'/	.	2BB#'/	.	2B#'/	.	.	.
=225	=225	=225	=225	=225	=225	=225	=225
2CC#'/	.	2C#'/	.	2c#'/	.	1r	.
2C#'/	.	2c#'/	.	2cc#'\	.	.	.
=226	=226	=226	=226	=226	=226	=226	=226
4AA'/	.	4A'/	.	4a'/	.	1r	.
4FF#'/	.	4F#'/	.	4f#'/	.	.	.
4GG#'/	.	4G#'/	.	4g#'/	.	.	.
4GG#'/	.	4G#'/	.	4G#'/	.	.	.
=227	=227	=227	=227	=227	=227	=227	=227
4C#/	.	4C#/	.	4c#/	.	2r	.
4c#\	.	4c#/	.	4cc#\	p	.	.
[2AA/	p	[2A/	p	4A/	.	4r	.
.	.	.	.	(8a\L	.	(4ccc#\	p
.	.	.	.	8cc#\J	.	.	.
=228	=228	=228	=228	=228	=228	=228	=228
*M3/4	*M3/4	*M3/4	*M3/4	*M3/4	*M3/4	*M3/4	*M3/4
*	*	*	*	*	*	*^	*
2.AA/_	.	2A/]	.	8ee\L	.	4r	2.a\)	.
.	.	.	.	8aa\	.	.	.	.
.	.	.	.	8ccc#\	.	4r	.	.
.	.	.	.	8eee\J)	.	.	.	.
.	.	(8A\L	.	(8ee\L	.	4eee\	.	.
.	.	8c#\J	.	8aa\J	.	.	.	.
=229	=229	=229	=229	=229	=229	=229	=229	=229
2AA/]	.	8e\L	.	8ee\L	.	4r	&(2.a\&)	.
.	.	8a\	.	8ccc#\	.	.	.	.
.	.	8cc#\	.	8ee\	.	4r	.	.
.	.	8ee\J)	.	8ccc#\J)	.	.	.	.
(8AA/L	.	(8C#/L	.	(8ee\L	.	(4aaa\	.	.
8C#/J	.	8E/J	.	8aa\J	.	.	.	.
=230	=230	=230	=230	=230	=230	=230	=230	=230
8E\L	.	8A/L	.	8ee\L	.	4r	[2.a\)	.
8A\	.	8c#/	.	8ccc#\	.	.	.	.
8c#\	.	8e/	.	8ee\	.	4r	.	.
8e\J)	.	8c#/J)	.	(8aa\J)	.	.	.	.
[4AA/	.	(8c#/L	.	8cc#\L	.	4eee\	.	.
.	.	8A/J	.	8aa\J	.	.	.	.
=231	=231	=231	=231	=231	=231	=231	=231	=231
2.AA/_	.	8d/L	.	8dd\L	.	4fff#\	2.a\_	.
.	.	8A/	.	8aa\	.	.	.	.
.	.	8c#/	.	8cc#\	.	4eee\	.	.
.	.	8A/	.	8aa\	.	.	.	.
.	.	8B/	.	8b\	.	4ddd\	.	.
.	.	8A/J)	.	8aa\J)	.	.	.	.
=232	=232	=232	=232	=232	=232	=232	=232	=232
2.AA/_	.	(8c#/L	.	(8cc#\L	.	&(2eee\&)	2.a\_	.
.	.	8A/	.	8aa\	.	.	.	.
.	.	8B/	.	8b\	.	.	.	.
.	.	(8A/J)	.	8aa\	.	.	.	.
.	.	8A\L	.	8a\	.	(4ccc#\	.	.
.	.	8a\J)	.	8aa\J)	.	.	.	.
=233	=233	=233	=233	=233	=233	=233	=233	=233
2.AA/_	.	(8B\L	.	(8b\L	.	4ddd\	2.a\_	.
.	.	8a\	.	8aa\	.	.	.	.
.	.	8A\	.	8a\	.	4ccc#\	.	.
.	.	8a\J	.	8aa\	.	.	.	.
.	.	8B/L	.	8b\	.	4ddd\	.	.
.	.	8A/J)	.	8aa\J	.	.	.	.
=234	=234	=234	=234	=234	=234	=234	=234	=234
2.AA/_	.	(8B/L	.	8b\L	.	8ccc#\L	2.a\_	.
.	.	8A/	.	8aa\	.	8ddd\J	.	.
.	.	8c#/	.	8cc#\	.	4eee\)	.	.
.	.	8A/	.	8aa\	.	.	.	.
.	.	8d/	.	8dd\	.	(4eee\	.	.
.	.	8c#/J)	.	8cc#\J)	.	.	.	.
=235	=235	=235	=235	=235	=235	=235	=235	=235
2.AA/_	.	(8d/L	.	(8dd\L	.	4fff#\	2.a\_	.
.	.	8A/	.	8aa\	.	.	.	.
.	.	8c#/	.	8cc#\	.	4eee\	.	.
.	.	8A/	.	8aa\	.	.	.	.
.	.	8B/	.	8b\	.	4ddd\	.	.
.	.	8A/J)	.	8aa\J)	.	.	.	.
=236	=236	=236	=236	=236	=236	=236	=236	=236
2.AA/_	.	(8c#\L	.	(8cc#\L	.	2eee\)	2.a\_	.
.	.	8A\	.	8aa\	.	.	.	.
.	.	8B\	.	8b\	.	.	.	.
.	.	8A\	.	8aa\	.	.	.	.
.	.	8A\	.	8a\	.	(4ccc#\	.	.
.	.	8a\J)	.	8aa\J)	.	.	.	.
=237	=237	=237	=237	=237	=237	=237	=237	=237
2.AA/_	.	(8B/L	.	(8b\L	.	4ddd\	2.a\_	.
.	.	8A/J)	.	8aa\	.	.	.	.
.	.	(8A\L	.	8a\	.	4ccc#\	.	.
.	.	8a\)	.	8aa\J)	.	.	.	.
.	.	(8f#\	.	(8ff#\L	.	8ddd\L	.	.
.	.	8d\J	.	8dd\J	.	8fff#\J	.	.
=238	=238	=238	=238	=238	=238	=238	=238	=238
2.AA/_	.	8e\L	.	8ee\L	.	2ccc#\)	2.a\_	.
.	.	8a\	.	8aa\	.	.	.	.
.	.	8cc#\	.	8ccc#\	.	.	.	.
.	.	8ee\J)	.	8eee\J)	.	.	.	.
.	.	(8A\L	.	(8a\L	.	(4ccc#\	.	.
.	.	8a\J	.	8aa\J	.	.	.	.
=239	=239	=239	=239	=239	=239	=239	=239	=239
2.AA/_	.	8B/L	.	8b\L	.	4ddd\	2.a\_	.
.	.	8A/J	.	8aa\	.	.	.	.
.	.	8A\L	.	8a\	.	4ccc#\	.	.
.	.	8a\)	.	8aa\J)	.	.	.	.
.	.	(8f#\	.	(8ff#\L	.	8ddd\L	.	.
.	.	8d\J	.	8dd\J	.	8fff#\J)	.	.
=240	=240	=240	=240	=240	=240	=240	=240	=240
2.AA/_	.	8c#\L	>	8cc#\L	.	2aaa\	2.a\_	.
.	.	8e\	.	8ee\	>	.	.	.
.	.	8a\	.	8aa\	.	.	.	.
.	.	8cc#\J)	.	8ccc#\J)	.	.	.	.
.	.	(8A\L	.	(8a\L	>	(4ccc#\	.	>
.	.	8a\J	>	8aa\J	.	.	.	.
=241	=241	=241	=241	=241	=241	=241	=241	=241
2.AA/_	>	8B\L	.	8b\L	.	4ddd\	2.a\_	>
.	.	8a\	.	8aa\	.	.	.	.
.	.	8A\	.	8a\	.	4ccc#\	.	.
.	.	8a\)	.	8aa\J)	.	.	.	.
.	.	8f#\	.	(8ff#\L	.	8ddd\L	.	.
.	.	8d\J	.	8dd\J	.	8fff#\J	.	.
=242	=242	=242	=242	=242	=242	=242	=242	=242
2.AA/_	p	8e\L	p	8ee\L	p	2ccc#/)	2.a\]	p
.	.	8a\	.	8aa\	.	.	.	.
.	.	8cc#\	.	8ccc#\	.	.	.	.
.	.	8ee\J	.	8eee\J)	.	.	.	.
.	.	[4c#\ [4e\	.	(8A/L	.	[4ccc#/	.	.
.	.	.	.	8c#/J	.	.	.	.
=243	=243	=243	=243	=243	=243	=243	=243	=243
2AA/]	.	2c#\] 2e\]	.	8e/L	.	2ccc#/]	2.a\	.
.	.	.	.	8a/	.	.	.	.
.	.	.	.	8cc#/	.	.	.	.
.	.	.	.	8ee/J)	p	.	.	.
(8AA/L	p	[4c#\ [4e\	p	[4cc#\ [4ee\	pp	[4ccc#/	.	p
8C#/J	.	.	.	.	.	.	.	.
*	*	*	*	*	*	*v	*v	*
=244	=244	=244	=244	=244	=244	=244	=244
*	*	*	*	*	*	*^	*
8E\L	.	2.c#\] 2.e\]	.	2.cc#\] 2.ee\]	.	2.ccc#/]	2.a\	.
8A\	.	.	.	.	.	.	.	.
8c#\	.	.	.	.	.	.	.	.
8e\J)	.	.	.	.	.	.	.	.
4AA/	.	.	.	.	.	.	.	.
*	*	*	*	*	*	*v	*v	*
==	==	==	==	==	==	==	==
*-	*-	*-	*-	*-	*-	*-	*-
!!!ENC: Don Anthony
!!!END: 2006/08//
!!!ONB: Converted to Humdrum by Craig Sapp 2006/08/18/ from MusicXML
